assets/svg/tips.svg

<svg fill="none" height="15" viewBox="0 0 15 15" width="15" xmlns="http://www.w3.org/2000/svg"><g fill="#102b44"><path clip-rule="evenodd" d="m3.00919 4.91232c.03055-2.60896 2.09267-4.762729 4.69552-4.90325827 2.87169-.16191473 5.24539 2.12932827 5.24239 4.96130827 0 1.14562-.4002 2.26374-1.1273 3.14969-.9012 1.09369-1.3992 2.54174-1.3992 4.07534 0 .3452-.278.6232-.62322.6232h-3.63849c-.34522 0-.62322-.278-.62322-.6232 0-1.5091-.50713-2.97249-1.42974-4.11505-.72098-.89206-1.10896-2.01935-1.09674-3.16803zm6.18941 6.65988c.11915-1.59165.69959-3.07943 1.6589-4.24644.5437-.65988.8431-1.49694.8431-2.35539 0-2.12322-1.77797-3.84013-3.93173-3.71793-1.91548.10387-3.49186 1.75357-3.51324 3.67516-.00917.87372.27495 1.69246.82179 2.37067.97454 1.20672 1.5611 2.70363 1.6833 4.27393z" fill-rule="evenodd"/><path d="m9.69655 13.7229h-3.43381c-.34521 0-.62321.278-.62321.6232s.278.6232.62321.6232h3.43381c.34525 0 .62325-.278.62325-.6232s-.278-.6232-.62325-.6232z"/></g></svg>

<svg width="15" height="15" viewBox="0 0 15 15" fill="none" xmlns="http://www.w3.org/2000/svg">
<path fill-rule="evenodd" clip-rule="evenodd" d="M3.00919 4.91232C3.03974 2.30336 5.10186 0.149591 7.70471 0.00906173C10.5764 -0.152853 12.9501 2.13839 12.9471 4.97037C12.9471 6.11599 12.5469 7.23411 11.8198 8.12006C10.9186 9.21375 10.4206 10.6618 10.4206 12.1954C10.4206 12.5406 10.1426 12.8186 9.79738 12.8186H6.15889C5.81367 12.8186 5.53567 12.5406 5.53567 12.1954C5.53567 10.6863 5.02854 9.22291 4.10593 8.08035C3.38495 7.18829 2.99697 6.061 3.00919 4.91232ZM9.1986 11.5722C9.31775 9.98055 9.89819 8.49277 10.8575 7.32576C11.4012 6.66588 11.7006 5.82882 11.7006 4.97037C11.7006 2.84715 9.92263 1.13024 7.76887 1.25244C5.85339 1.35631 4.27701 3.00601 4.25563 4.9276C4.24646 5.80132 4.53058 6.62006 5.07742 7.29827C6.05196 8.50499 6.63852 10.0019 6.76072 11.5722H9.1986Z" fill="#102B44"/>
<path d="M9.69655 13.7229H6.26274C5.91753 13.7229 5.63953 14.0009 5.63953 14.3461C5.63953 14.6913 5.91753 14.9693 6.26274 14.9693H9.69655C10.0418 14.9693 10.3198 14.6913 10.3198 14.3461C10.3198 14.0009 10.0418 13.7229 9.69655 13.7229Z" fill="#102B44"/>
</svg>
